coffe/nuxt.svg

<svg width="66" height="49" viewBox="0 0 66 49" fill="none" xmlns="http://www.w3.org/2000/svg">
<path d="M65.2608 43.4271L46.0276 9.45337C45.7121 8.84873 45.2498 8.33367 44.6834 7.95545C44.1169 7.57723 43.4646 7.3481 42.7866 7.28937C42.1154 7.31838 41.4659 7.53601 40.9122 7.91747C40.3585 8.29892 39.9229 8.82877 39.6552 9.44658L37.1679 13.8163L39.3881 17.7061L42.8065 11.6382L61.8349 45.1174H54.5992C54.6918 45.6709 54.6399 46.2387 54.4485 46.766C54.4083 46.8825 54.3578 46.9953 54.2977 47.1028L54.236 47.2264C53.8429 47.783 53.319 48.2342 52.7107 48.5396C52.6073 48.5916 52.502 48.639 52.3952 48.6819C51.9554 48.8587 51.4886 48.9589 51.015 48.9778H62.0678C62.748 48.9962 63.4222 48.8459 64.0306 48.5404C64.6389 48.2349 65.1627 47.7835 65.5554 47.2264C65.8654 46.6288 66.0022 45.956 65.9501 45.2845C65.898 44.6129 65.6592 43.9695 65.2608 43.4271Z" fill="#DCA780"/>
<path fill-rule="evenodd" clip-rule="evenodd" d="M20.0585 47.0548C20.0965 47.1467 20.14 47.2361 20.1889 47.3227C20.5482 47.8925 21.0598 48.3498 21.6654 48.6425C22.0353 48.8213 22.4313 48.9343 22.8358 48.9786L23.5951 48.9793H23.6079H50.7279C50.8238 48.9822 50.9195 48.9816 51.015 48.9778H50.9635C50.8919 48.9797 50.8202 48.9797 50.7484 48.9778H50.9635C51.4548 48.965 51.9395 48.8647 52.3952 48.6819C52.4988 48.6402 52.6009 48.5943 52.7012 48.5442C53.3132 48.2384 53.8405 47.7855 54.236 47.2264L54.2977 47.1028C54.3578 46.9953 54.4083 46.8825 54.4485 46.766C54.6399 46.2387 54.6918 45.6709 54.5992 45.1174C54.4926 44.5205 54.279 43.9479 53.9688 43.4273L39.3953 17.7187L39.3881 17.7061L39.3811 17.7185L37.1679 13.8163L37.0915 13.952L34.9685 17.7185L34.9619 17.707L34.9553 17.7187L20.388 43.4281C20.1053 43.9549 19.9146 44.5259 19.8256 45.1174C19.8217 45.1406 19.818 45.1638 19.8146 45.187C19.7207 45.8198 19.805 46.4667 20.0585 47.0548ZM50.4881 45.1174L37.1679 21.6209L23.8546 45.1174H50.4881Z" fill="#A07250"/>
<path d="M19.8256 45.1174H4.27871L27.3833 4.34887L34.9619 17.707L37.0915 13.952L37.1679 13.8163L30.5559 2.13658C30.239 1.53832 29.7775 1.02927 29.2137 0.656016C28.6499 0.28276 28.0018 0.0572412 27.3286 0C26.657 0.0308323 26.0075 0.250039 25.4539 0.632623C24.9003 1.01521 24.465 1.54587 24.1972 2.16425L0.791098 43.4273C0.441172 44.01 0.239384 44.6699 0.203538 45.3491C0.167692 46.0283 0.298871 46.7058 0.585513 47.3222C0.94556 47.8913 1.45724 48.3481 2.06268 48.6408C2.66812 48.9335 3.34317 49.0505 4.01147 48.9786H22.8187C22.4135 48.9341 22.0169 48.8208 21.6463 48.6418C21.0409 48.3492 20.5292 47.8924 20.169 47.3234C20.1201 47.2369 20.0766 47.1475 20.0387 47.0556C19.7918 46.4653 19.7144 45.8182 19.8146 45.187C19.818 45.1638 19.8217 45.1406 19.8256 45.1174Z" fill="#E3C4AD"/>
</svg>

<svg xmlns="http://www.w3.org/2000/svg" width="66" height="49" fill="none"><path fill="#DCA780" d="M65.26 43.43 46.03 9.45a4.06 4.06 0 0 0-3.24-2.16 3.58 3.58 0 0 0-3.13 2.16l-2.5 4.37 2.23 3.89 3.42-6.07 19.02 33.48H54.6a3.26 3.26 0 0 1-.3 1.98l-.06.13A4.14 4.14 0 0 1 51 48.98h11.06a4.13 4.13 0 0 0 3.49-1.75 3.61 3.61 0 0 0-.3-3.8Z"/><path fill="#A07250" fill-rule="evenodd" d="M20.06 47.05c.04.1.08.19.13.27a3.6 3.6 0 0 0 2.65 1.66h28.18-.27.21a4.13 4.13 0 0 0 3.28-1.75l.06-.13c.06-.1.1-.22.15-.33.19-.53.24-1.1.15-1.65-.1-.6-.32-1.17-.63-1.7L39.4 17.73l-.01-.01-2.22-3.9-.08.14-2.12 3.77v-.01h-.01L20.39 43.44a5.21 5.21 0 0 0-.58 1.76c-.09.63 0 1.28.25 1.86Zm30.43-1.93-13.32-23.5-13.32 23.5H50.5Z" clip-rule="evenodd"/><path fill="#E3C4AD" d="M19.83 45.12H4.28l23.1-40.77 7.58 13.36 2.13-3.76.08-.13-6.61-11.68A4.05 4.05 0 0 0 27.33 0a3.59 3.59 0 0 0-3.13 2.16L.8 43.43a4.16 4.16 0 0 0-.21 3.9A3.6 3.6 0 0 0 4 48.97h18.8a3.6 3.6 0 0 1-2.64-1.66 3.44 3.44 0 0 1-.34-2.2Z"/></svg>
